X:140
T: Ich schie den Hirsch im wilden Forst (2-28), S. 73f
N: K1114
O: Luxemburg
S: KINTZELE, Guillaume: An der Ucht, Bd. 2, Luxemburg 1927]
N: in der Quelle mit einer 2. Stimme versehen
R: Jagd]
M: 2/4
L: 1/16
K: G
B2 | B3EE3E | E3EE3B, | E3FG3F | E4z2
B2 | B3EE3E | E3EE3E | D3DB3A | G4z2
B2 | B3Ge3c | B3GE3B | B3Ge3c | B4d4 | B4z2
D2 | G4A2B4c2 | e4c2B4B2 | B4A2c4B2 | G6z4
D2 | G4A2B4c2 | e4d2B4B2 | B4A2c4B2 | G6z4

@@@ Tune index: 8194
